X: 1
T: Mack the Knife
C: Kurt Weil
O: The Threepenny Opera
Z: 2007 John Chambers <jc:trillian.mit.edu>
M: 2/4
L: 1/8
K: D
FA \
|| "D" .B2 .B2 | z2 FA | "Em".B2 .B2 | z2 EG | "A".B2 .B2 | z2 EG | "D"B2- B2- |
B2 Ac \
|| "D"e2 d2- | d2 cB | "Em"d2 E2- | E2 FG | "Em"d2 E2- | "A7"E2 dc | "D"B2- B2- | B2 :|
